X:1
T:Rock Andy
T:I'll Learn You how to Rock Andy
S:Owen "Snake" Chapman (1919-2002), Canada, Pike County, 
Q:1/2=110
M:4/4|
L:1/8
D:Rounder 0378, Owen Chapman - "Up in Chapman's Hollow" (1975)
Z:Transcribed by Andy Kuntz
K:Amix
x8||"A"ea-ab a3b|"A"a2g2 e4|"G"eg-ga g2g2|(g/a/g) "Em"e2 d4|
"A"ea-ab a2a2|"A"gage d2[e2e2]-|"Em"[e2e2]g2 ed B2|"A"1 A3B A4:||
|:"A"E2 A2  BABd|"A"efec d2 EF|"G"G2 AGBGAG|"G"BA G2 E4|
"A"E2 A2  BABd|"A"efec d3 e1-|"Em"[e2e2]g2 ed B2|"A"1 A3B A4:|